X: 1
T: Pols etter Aage Grundstad
R: Inherradspols
M: 3/4
L: 1/8
K: DDor
|: "Dm"{A}d2 d2 "(A)"e>e | "G"{e}f2 fd "A7"e2 | "Dm"a2 (3fdf "(A)"e>^c | "E7"(3def d^c "(A)"A2 \
|  "Dm"{A}d2 d2 "(A)"e>e | "G"{e}f2 fd "A7"e2 | "Dm"a2 (3fdf "A7"e>^c | "Dm"d2 d4 :|
|: "A7"{A}a2 a2 g>e | "Dm"{e}f2 fd "(A)"e2 | "Dm"a2 (3fdf "(A)"e>^c | "E7"(3def d^c "(A)"A2 \
|  "A7"{A}a2 a2 g>e | "Dm"{e}f2 fd "(A)"e2 | "Dm"a2 (3fdf "A7"e>^c | "Dm"d2 d4 :|

